swiss/communes/6422.svg

<?xml version="1.0" encoding="UTF-8" standalone="no"?>
<svg
   xmlns:i="http://ns.adobe.com/AdobeIllustrator/10.0/"
   xmlns:dc="http://purl.org/dc/elements/1.1/"
   xmlns:cc="http://web.resource.org/cc/"
   xmlns:rdf="http://www.w3.org/1999/02/22-rdf-syntax-ns#"
   xmlns:svg="http://www.w3.org/2000/svg"
   xmlns="http://www.w3.org/2000/svg"
   xmlns:xlink="http://www.w3.org/1999/xlink"
   xmlns:sodipodi="http://inkscape.sourceforge.net/DTD/sodipodi-0.dtd"
   xmlns:inkscape="http://www.inkscape.org/namespaces/inkscape"
   height="763"
   width="603"
   version="1.0"
   id="svg20"
   sodipodi:version="0.32"
   inkscape:version="0.43"
   sodipodi:docname="Les Planchettes-coat_of_arms.svg"
   sodipodi:docbase="C:\Documents and Settings\Chris Nendick\My Documents\My Pictures\Inkscape work\Blazons">
  <metadata
     id="metadata31">
    <rdf:RDF>
      <cc:Work
         rdf:about="">
        <dc:format>image/svg+xml</dc:format>
        <dc:type
           rdf:resource="http://purl.org/dc/dcmitype/StillImage" />
        <dc:date />
        <dc:creator>
          <cc:Agent>
            <dc:title />
          </cc:Agent>
        </dc:creator>
        <cc:license
           rdf:resource="http://creativecommons.org/licenses/GPL/2.0/" />
        <dc:coverage />
        <dc:description />
        <dc:subject>
          <rdf:Bag />
        </dc:subject>
        <dc:language />
        <dc:title />
      </cc:Work>
      <cc:License
         rdf:about="http://creativecommons.org/licenses/GPL/2.0/">
        <cc:permits
           rdf:resource="http://web.resource.org/cc/Reproduction" />
        <cc:permits
           rdf:resource="http://web.resource.org/cc/Distribution" />
        <cc:requires
           rdf:resource="http://web.resource.org/cc/Notice" />
        <cc:permits
           rdf:resource="http://web.resource.org/cc/DerivativeWorks" />
        <cc:requires
           rdf:resource="http://web.resource.org/cc/ShareAlike" />
        <cc:requires
           rdf:resource="http://web.resource.org/cc/SourceCode" />
      </cc:License>
    </rdf:RDF>
  </metadata>
  <defs
     id="defs29">
    <linearGradient
       id="linearGradient2893">
      <stop
         style="stop-color:#ffffff;stop-opacity:0.3137255;"
         offset="0"
         id="stop2895" />
      <stop
         id="stop2897"
         offset="0.19"
         style="stop-color:#ffffff;stop-opacity:0.25098041;" />
      <stop
         style="stop-color:#6b6b6b;stop-opacity:0.1254902;"
         offset="0.60000002"
         id="stop2901" />
      <stop
         style="stop-color:#000000;stop-opacity:0.1254902;"
         offset="1"
         id="stop2899" />
    </linearGradient>
    <linearGradient
       id="linearGradient2955">
      <stop
         style="stop-color:white;stop-opacity:0;"
         offset="0"
         id="stop2965" />
      <stop
         style="stop-color:black;stop-opacity:0.64583331;"
         offset="1"
         id="stop2959" />
    </linearGradient>
    <radialGradient
       inkscape:collect="always"
       xlink:href="#linearGradient2893"
       id="radialGradient3236"
       gradientUnits="userSpaceOnUse"
       gradientTransform="matrix(1.215027,1.531577e-24,1.464684e-23,1.266667,-839.1924,-490.4894)"
       cx="858.04236"
       cy="579.93323"
       fx="858.04236"
       fy="579.93323"
       r="300" />
    <foreignObject
       requiredExtensions="http://ns.adobe.com/AdobeIllustrator/10.0/"
       x="0"
       y="0"
       width="1"
       height="1"
       id="foreignObject3067">
      <i:pgfRef
         xlink:href="#adobe_illustrator_pgf" />
    </foreignObject>
    <foreignObject
       requiredExtensions="http://ns.adobe.com/AdobeIllustrator/10.0/"
       x="0"
       y="0"
       width="1"
       height="1"
       id="foreignObject2183">
      <i:pgfRef
         xlink:href="#adobe_illustrator_pgf" />
    </foreignObject>
    <foreignObject
       requiredExtensions="http://ns.adobe.com/AdobeIllustrator/10.0/"
       x="0"
       y="0"
       width="1"
       height="1"
       id="foreignObject3850">
      <i:pgfRef
         xlink:href="#adobe_illustrator_pgf" />
    </foreignObject>
    <foreignObject
       id="foreignObject22445"
       height="1"
       width="1"
       y="0"
       x="0"
       requiredExtensions="http://ns.adobe.com/AdobeIllustrator/10.0/">
      <i:pgfRef
         xlink:href="#adobe_illustrator_pgf" />
    </foreignObject>
    <foreignObject
       id="foreignObject22443"
       height="1"
       width="1"
       y="0"
       x="0"
       requiredExtensions="http://ns.adobe.com/AdobeIllustrator/10.0/">
      <i:pgfRef
         xlink:href="#adobe_illustrator_pgf" />
    </foreignObject>
    <foreignObject
       id="foreignObject22441"
       height="1"
       width="1"
       y="0"
       x="0"
       requiredExtensions="http://ns.adobe.com/AdobeIllustrator/10.0/">
      <i:pgfRef
         xlink:href="#adobe_illustrator_pgf" />
    </foreignObject>
    <radialGradient
       r="300"
       fy="579.93323"
       fx="858.04236"
       cy="579.93323"
       cx="858.04236"
       gradientTransform="matrix(1.215027,1.531577e-24,1.464684e-23,1.266667,-839.1924,-490.4894)"
       gradientUnits="userSpaceOnUse"
       id="radialGradient22439"
       xlink:href="#linearGradient2893"
       inkscape:collect="always" />
    <linearGradient
       id="linearGradient22433">
      <stop
         id="stop22435"
         offset="0"
         style="stop-color:white;stop-opacity:0;" />
      <stop
         id="stop22437"
         offset="1"
         style="stop-color:black;stop-opacity:0.64583331;" />
    </linearGradient>
    <linearGradient
       id="linearGradient22423">
      <stop
         id="stop22425"
         offset="0"
         style="stop-color:#ffffff;stop-opacity:0.3137255;" />
      <stop
         style="stop-color:#ffffff;stop-opacity:0.25098041;"
         offset="0.19"
         id="stop22427" />
      <stop
         id="stop22429"
         offset="0.60000002"
         style="stop-color:#6b6b6b;stop-opacity:0.1254902;" />
      <stop
         id="stop22431"
         offset="1"
         style="stop-color:#000000;stop-opacity:0.1254902;" />
    </linearGradient>
    <foreignObject
       id="foreignObject25169"
       height="1"
       width="1"
       y="0"
       x="0"
       requiredExtensions="http://ns.adobe.com/AdobeIllustrator/10.0/">
      <i:pgfRef
         xlink:href="#adobe_illustrator_pgf" />
    </foreignObject>
    <foreignObject
       id="foreignObject25167"
       height="1"
       width="1"
       y="0"
       x="0"
       requiredExtensions="http://ns.adobe.com/AdobeIllustrator/10.0/">
      <i:pgfRef
         xlink:href="#adobe_illustrator_pgf" />
    </foreignObject>
    <foreignObject
       id="foreignObject25165"
       height="1"
       width="1"
       y="0"
       x="0"
       requiredExtensions="http://ns.adobe.com/AdobeIllustrator/10.0/">
      <i:pgfRef
         xlink:href="#adobe_illustrator_pgf" />
    </foreignObject>
    <radialGradient
       r="300"
       fy="579.93323"
       fx="858.04236"
       cy="579.93323"
       cx="858.04236"
       gradientTransform="matrix(1.215027,1.531577e-24,1.464684e-23,1.266667,-839.1924,-490.4894)"
       gradientUnits="userSpaceOnUse"
       id="radialGradient25163"
       xlink:href="#linearGradient2893"
       inkscape:collect="always" />
    <linearGradient
       id="linearGradient25157">
      <stop
         id="stop25159"
         offset="0"
         style="stop-color:white;stop-opacity:0;" />
      <stop
         id="stop25161"
         offset="1"
         style="stop-color:black;stop-opacity:0.64583331;" />
    </linearGradient>
    <linearGradient
       id="linearGradient25147">
      <stop
         id="stop25149"
         offset="0"
         style="stop-color:#ffffff;stop-opacity:0.3137255;" />
      <stop
         style="stop-color:#ffffff;stop-opacity:0.25098041;"
         offset="0.19"
         id="stop25151" />
      <stop
         id="stop25153"
         offset="0.60000002"
         style="stop-color:#6b6b6b;stop-opacity:0.1254902;" />
      <stop
         id="stop25155"
         offset="1"
         style="stop-color:#000000;stop-opacity:0.1254902;" />
    </linearGradient>
  </defs>
  <sodipodi:namedview
     inkscape:window-height="808"
     inkscape:window-width="1152"
     inkscape:pageshadow="2"
     inkscape:pageopacity="0.0"
     guidetolerance="10.0"
     gridtolerance="10.0"
     objecttolerance="10.0"
     borderopacity="1.0"
     bordercolor="#666666"
     pagecolor="#ffffff"
     id="base"
     inkscape:zoom="0.83977464"
     inkscape:cx="301.50015"
     inkscape:cy="381.50001"
     inkscape:window-x="-4"
     inkscape:window-y="-4"
     inkscape:current-layer="layer1"
     showgrid="false"
     showguides="true"
     inkscape:guide-bbox="true" />
  <desc
     id="desc22">Coat of Arms of Canton of Freiburg (Fribourg)</desc>
  <g
     inkscape:groupmode="layer"
     id="layer1"
     inkscape:label="Fond écu"
     style="opacity:1">
    <path
       id="path1337"
       d="M 1.5001513,1.49998 L 1.5001513,460.3679 C 1.5001513,626.6785 135.81471,761.5 301.50014,761.5 C 467.18558,761.5 601.50015,626.6785 601.50015,460.3679 L 601.50015,1.49998 L 1.5001513,1.49998 z "
       style="fill:#e20909;fill-opacity:1;stroke:#000000;stroke-opacity:1;stroke-width:3.3;stroke-miterlimit:4;stroke-dasharray:none" />
    <path
       style="fill:none;fill-opacity:1;stroke:#000000;stroke-opacity:1"
       d="M 1.5001513,1.49998 L 1.5001513,460.3679 C 1.5001513,626.6785 135.81471,761.5 301.50014,761.5 C 467.18558,761.5 601.50015,626.6785 601.50015,460.3679 L 601.50015,1.49998 L 1.5001513,1.49998 z "
       id="path5889" />
    <path
       style="fill:none;fill-opacity:1;stroke:#000000;stroke-opacity:1;stroke-width:3.3;stroke-miterlimit:4;stroke-dasharray:none"
       d="M 1.5001513,1.49998 L 1.5001513,460.3679 C 1.5001513,626.6785 135.81471,761.5 301.50014,761.5 C 467.18558,761.5 601.50015,626.6785 601.50015,460.3679 L 601.50015,1.49998 L 1.5001513,1.49998 z "
       id="path18563" />
    <path
       id="path5000"
       d="M 1.5001513,1.49998 L 1.5001513,460.3679 C 1.5001513,626.6785 135.81471,761.5 301.50014,761.5 C 467.18558,761.5 601.50015,626.6785 601.50015,460.3679 L 601.50015,1.49998 L 1.5001513,1.49998 z "
       style="fill:none;fill-opacity:1;stroke:#000000;stroke-opacity:1;stroke-width:3.3;stroke-miterlimit:4;stroke-dasharray:none" />
    <path
       style="fill:#ffffff;fill-opacity:1;fill-rule:evenodd;stroke:#000000;stroke-width:3;stroke-linecap:butt;stroke-linejoin:miter;stroke-opacity:1;stroke-miterlimit:4;stroke-dasharray:none"
       d="M 302.65625,1.5 L 1.5,384.34375 L 1.5,460.375 C 1.5,461.02465 1.4959072,461.66382 1.5,462.3125 C 1.6606805,487.77925 4.974381,512.49979 11.0625,536.09375 L 301.5,164.34375 L 591.9375,536.09375 C 598.02562,512.49979 601.33932,487.77925 601.5,462.3125 C 601.50409,461.66382 601.5,461.02465 601.5,460.375 L 601.5,384.34375 L 302.65625,1.5 z "
       id="path2544" />
    <path
       style="fill:#ffffff;fill-opacity:1;fill-rule:evenodd;stroke:#000000;stroke-width:3;stroke-linecap:butt;stroke-linejoin:miter;stroke-opacity:1;stroke-miterlimit:4;stroke-dasharray:none"
       d="M 1.5 384.34375 L 1.5 460.375 C 1.5 626.68561 135.81457 761.5 301.5 761.5 C 467.18543 761.5 601.5 626.6856 601.5 460.375 L 601.5 384.34375 L 1.5 384.34375 z "
       id="path1391" />
  </g>
  <g
     inkscape:groupmode="layer"
     id="layer2"
     inkscape:label="Meubles"
     style="opacity:1">
    <g
       id="g25173"
       inkscape:label="Fond écu"
       transform="translate(581.6022,605.4773)" />
    <g
       id="g25188"
       inkscape:label="Reflet final"
       style="display:inline"
       transform="translate(581.6022,605.4773)" />
    <g
       id="g25190"
       inkscape:label="Contour final"
       style="display:inline"
       transform="translate(581.6022,605.4773)" />
    <path
       style="font-size:263.36953735px;font-style:normal;font-variant:normal;font-weight:normal;font-stretch:normal;text-align:start;line-height:125%;writing-mode:lr-tb;text-anchor:start;fill:#000000;fill-opacity:1;stroke:#000000;stroke-width:5.9000001;stroke-linecap:butt;stroke-linejoin:miter;stroke-miterlimit:4;stroke-dasharray:none;stroke-opacity:1;font-family:French Script MT;opacity:1"
       d="M 160.23465,597.52714 L 146.60322,604.85725 L 146.60322,500.04955 C 139.4874,505.02212 131.72864,508.4514 123.32691,510.33742 L 120.75494,505.57928 C 138.24429,500.26398 150.80405,489.46172 158.43427,473.17248 L 160.23465,474.45847 L 160.23465,597.52714 M 262.21318,535.79991 C 272.24379,540.77244 279.27383,545.57344 283.30332,550.20293 C 287.33265,554.74678 289.34736,560.14791 289.34745,566.40633 C 289.34736,576.86569 285.48941,585.65324 277.77359,592.769 C 270.14335,599.79905 260.24128,603.31407 248.06736,603.31407 C 236.66493,603.31407 227.40585,600.14198 220.2901,593.79779 C 213.17431,587.45361 209.61643,579.65198 209.61643,570.39288 C 209.61643,556.93295 217.76098,545.95923 234.05013,537.47169 C 226.3342,532.15635 221.23314,527.61255 218.74692,523.84026 C 216.3464,519.98238 215.14615,515.56717 215.14617,510.59462 C 215.14615,500.90697 218.96123,492.80528 226.59142,486.28952 C 234.30729,479.68826 243.73784,476.38757 254.88307,476.38744 C 264.31356,476.38757 272.02946,478.8738 278.03079,483.84615 C 284.03196,488.81873 287.03259,495.16291 287.03267,502.87871 C 287.03259,509.73739 285.23221,515.65291 281.63154,520.62529 C 278.03071,525.59784 271.55793,530.65604 262.21318,535.79991 M 256.16906,532.71355 C 269.71469,527.56968 276.48753,519.21079 276.48761,507.63686 C 276.48753,500.17825 274.0013,494.30559 269.0289,490.01887 C 264.1421,485.64664 257.49785,483.46047 249.09614,483.46036 C 241.80886,483.46047 236.0648,485.30371 231.86396,488.99009 C 227.74878,492.59095 225.69121,497.39195 225.69123,503.39311 C 225.69121,515.39571 235.85047,525.16918 256.16906,532.71355 M 239.83706,540.81524 C 227.40585,545.8735 221.19027,554.48959 221.19029,566.66352 C 221.19027,575.40824 224.10516,582.78121 229.93498,588.78245 C 235.76474,594.78371 243.26631,597.78434 252.4397,597.78434 C 260.24128,597.78434 266.58546,595.46957 271.47227,590.84003 C 276.35893,586.12476 278.8023,580.42357 278.80238,573.73644 C 278.8023,568.764 277.38772,564.43452 274.55863,560.748 C 271.81513,557.06155 265.51381,552.90354 255.65466,548.27395 L 239.83706,540.81524 M 352.61786,597.52714 L 338.98643,604.85725 L 338.98643,500.04955 C 331.87061,505.02212 324.11185,508.4514 315.71012,510.33742 L 313.13815,505.57928 C 330.6275,500.26398 343.18726,489.46172 350.81748,473.17248 L 352.61786,474.45847 L 352.61786,597.52714 M 482.24506,572.96485 C 480.4446,582.48115 476.15799,589.98271 469.38522,595.46957 C 462.6123,600.8707 455.58227,603.57126 448.29508,603.57127 C 440.92206,603.57126 434.40642,601.08503 428.74813,596.11256 C 425.49027,593.19767 422.18958,591.74022 418.84605,591.74021 C 412.24465,591.74022 408.2581,595.51244 406.8864,603.05687 L 403.28564,603.05687 C 403.71429,590.36851 408.17237,579.05186 416.65988,569.10689 C 425.23307,559.07626 433.24903,551.61756 440.70778,546.73077 C 448.16643,541.75836 453.52469,536.35723 456.78258,530.52737 C 460.04034,524.69765 461.66925,518.99646 461.66932,513.42378 C 461.66925,505.79371 459.09729,498.978 453.95341,492.97664 C 448.89516,486.97549 442.63671,483.97486 435.17805,483.97475 C 427.9765,483.97486 421.93238,486.28963 417.04567,490.91906 C 412.24465,495.46298 409.84414,501.29277 409.84416,508.40845 C 409.84414,513.55247 411.13013,517.71048 413.70211,520.88249 C 416.35979,524.05466 419.66048,525.64071 423.60419,525.64063 C 427.11918,525.64071 429.99121,524.48332 432.22028,522.16848 C 434.53501,519.85378 435.6924,517.19609 435.69244,514.19537 L 435.69244,511.8806 L 438.52161,510.85182 C 439.80754,513.08094 440.45053,515.78151 440.45058,518.95352 C 440.45053,524.26899 438.69303,528.51273 435.17805,531.68476 C 431.74872,534.77118 427.24778,536.31436 421.67521,536.3143 C 415.93113,536.31436 411.21586,534.21393 407.52939,530.01298 C 403.84289,525.81217 401.99965,520.36818 401.99966,513.68098 C 401.99965,503.3932 405.81473,494.69139 413.44492,487.5755 C 421.07506,480.45984 430.5056,476.90196 441.73657,476.90184 C 451.42425,476.90196 459.69741,480.03118 466.55606,486.28952 C 473.50029,492.46235 476.97245,499.92105 476.97253,508.66564 C 476.97245,523.06874 467.11324,536.74302 447.3949,549.68853 C 427.67644,562.63414 415.93113,575.32251 412.15893,587.75366 C 416.70272,584.23866 421.97525,582.48115 427.97654,582.48113 C 432.34884,582.48115 437.9643,583.63853 444.82293,585.95329 C 451.76718,588.18234 456.26812,589.29685 458.32576,589.29684 C 462.78377,589.29685 466.51312,588.0966 469.51382,585.69609 C 472.51437,583.20987 475.6436,578.45173 478.90151,571.42167 L 482.24506,572.96485"
       id="text4024" />
  </g>
  <g
     inkscape:groupmode="layer"
     id="layer3"
     inkscape:label="Reflet final"
     style="display:inline"
     sodipodi:insensitive="true">
    <path
       style="fill:url(#radialGradient3236);fill-opacity:1"
       d="M 1.5,1.5 L 1.5,460.3679 C 1.5,626.67854 135.81454,761.5 301.49993,761.5 C 467.1854,761.5 601.5,626.67854 601.5,460.3679 L 601.5,1.5 L 1.5,1.5 z "
       id="path2346" />
  </g>
  <g
     inkscape:groupmode="layer"
     id="layer4"
     inkscape:label="Contour final"
     style="display:inline"
     sodipodi:insensitive="true">
    <path
       style="fill:none;fill-opacity:1;stroke:#000000;stroke-width:3;stroke-miterlimit:4;stroke-dasharray:none;stroke-opacity:1"
       d="M 1.5,1.5 L 1.5,460.36794 C 1.5,626.67854 135.81454,761.5 301.49993,761.5 C 467.1854,761.5 601.5,626.67854 601.5,460.36794 L 601.5,1.5 L 1.5,1.5 z "
       id="path3239" />
  </g>
</svg>

<svg xmlns="http://www.w3.org/2000/svg" xmlns:xlink="http://www.w3.org/1999/xlink" height="763" width="603" version="1.0"><defs><radialGradient xlink:href="#a" id="b" gradientUnits="userSpaceOnUse" gradientTransform="matrix(1.21503 0 0 1.26667 -839.192 -490.49)" cx="858.042" cy="579.933" fx="858.042" fy="579.933" r="300"/><linearGradient id="a"><stop style="stop-color:#fff;stop-opacity:.3137255" offset="0"/><stop offset=".19" style="stop-color:#fff;stop-opacity:.25098041"/><stop style="stop-color:#6b6b6b;stop-opacity:.1254902" offset=".6"/><stop style="stop-color:#000;stop-opacity:.1254902" offset="1"/></linearGradient></defs><g style="opacity:1"><path d="M1.5 1.5v458.868c0 166.31 134.315 301.132 300 301.132 165.686 0 300-134.822 300-301.132V1.5H1.5z" style="fill:#e20909;fill-opacity:1;stroke:#000;stroke-opacity:1;stroke-width:3.3;stroke-miterlimit:4;stroke-dasharray:none"/><path style="fill:none;fill-opacity:1;stroke:#000;stroke-opacity:1" d="M1.5 1.5v458.868c0 166.31 134.315 301.132 300 301.132 165.686 0 300-134.822 300-301.132V1.5H1.5z"/><path style="fill:none;fill-opacity:1;stroke:#000;stroke-opacity:1;stroke-width:3.3;stroke-miterlimit:4;stroke-dasharray:none" d="M1.5 1.5v458.868c0 166.31 134.315 301.132 300 301.132 165.686 0 300-134.822 300-301.132V1.5H1.5z"/><path d="M1.5 1.5v458.868c0 166.31 134.315 301.132 300 301.132 165.686 0 300-134.822 300-301.132V1.5H1.5z" style="fill:none;fill-opacity:1;stroke:#000;stroke-opacity:1;stroke-width:3.3;stroke-miterlimit:4;stroke-dasharray:none"/><path style="fill:#fff;fill-opacity:1;fill-rule:evenodd;stroke:#000;stroke-width:3;stroke-linecap:butt;stroke-linejoin:miter;stroke-opacity:1;stroke-miterlimit:4;stroke-dasharray:none" d="M302.656 1.5 1.5 384.344v76.031c0 .65-.004 1.289 0 1.938.16 25.466 3.474 50.187 9.563 73.78L301.5 164.344l290.438 371.75c6.088-23.593 9.401-48.314 9.562-73.78.004-.65 0-1.288 0-1.938v-76.031L302.656 1.5z"/><path style="fill:#fff;fill-opacity:1;fill-rule:evenodd;stroke:#000;stroke-width:3;stroke-linecap:butt;stroke-linejoin:miter;stroke-opacity:1;stroke-miterlimit:4;stroke-dasharray:none" d="M1.5 384.344v76.031c0 166.31 134.315 301.125 300 301.125s300-134.814 300-301.125v-76.031H1.5z"/></g><g style="opacity:1"><path style="font-size:263.36953735px;font-style:normal;font-variant:normal;font-weight:400;font-stretch:normal;text-align:start;line-height:125%;writing-mode:lr-tb;text-anchor:start;fill:#000;fill-opacity:1;stroke:#000;stroke-width:5.9000001;stroke-linecap:butt;stroke-linejoin:miter;stroke-miterlimit:4;stroke-dasharray:none;stroke-opacity:1;font-family:French Script MT;opacity:1" d="m160.235 597.527-13.632 7.33V500.05c-7.116 4.972-14.874 8.401-23.276 10.287l-2.572-4.758c17.49-5.315 30.049-16.117 37.68-32.407l1.8 1.286v123.07M262.213 535.8c10.03 4.972 17.06 9.773 21.09 14.403 4.03 4.544 6.044 9.945 6.044 16.203 0 10.46-3.858 19.247-11.573 26.363-7.63 7.03-17.533 10.545-29.707 10.545-11.402 0-20.661-3.172-27.777-9.516-7.116-6.344-10.674-14.146-10.674-23.405 0-13.46 8.145-24.434 24.434-32.921-7.716-5.316-12.817-9.86-15.303-13.632-2.4-3.858-3.6-8.273-3.6-13.245 0-9.688 3.814-17.79 11.444-24.305 7.716-6.602 17.147-9.902 28.292-9.903 9.43 0 17.146 2.487 23.148 7.46 6.001 4.972 9.002 11.316 9.002 19.032 0 6.858-1.8 12.774-5.401 17.746-3.601 4.973-10.074 10.031-19.419 15.175m-6.044-3.086c13.546-5.144 20.319-13.503 20.319-25.077 0-7.459-2.487-13.331-7.46-17.618-4.886-4.372-11.53-6.559-19.932-6.559-7.287 0-13.031 1.844-17.232 5.53-4.115 3.601-6.173 8.402-6.173 14.403 0 12.003 10.16 21.776 30.478 29.32m-16.332 8.102c-12.431 5.058-18.647 13.675-18.647 25.849 0 8.744 2.915 16.117 8.745 22.118 5.83 6.002 13.331 9.002 22.505 9.002 7.801 0 14.145-2.314 19.032-6.944 4.887-4.715 7.33-10.416 7.33-17.104 0-4.972-1.414-9.301-4.243-12.988-2.744-3.686-9.045-7.844-18.904-12.474l-15.818-7.459m112.78 56.712-13.63 7.33V500.05c-7.116 4.972-14.875 8.401-23.277 10.287l-2.572-4.758c17.49-5.315 30.05-16.117 37.68-32.407l1.8 1.286v123.07m129.627-24.563c-1.8 9.516-6.087 17.018-12.86 22.505-6.773 5.4-13.803 8.101-21.09 8.101-7.373 0-13.889-2.486-19.547-7.458-3.258-2.915-6.558-4.373-9.902-4.373-6.601 0-10.588 3.772-11.96 11.317h-3.6c.428-12.688 4.886-24.005 13.374-33.95 8.573-10.03 16.589-17.49 24.048-22.376 7.458-4.973 12.817-10.374 16.075-16.204 3.257-5.83 4.886-11.53 4.886-17.103 0-7.63-2.572-14.446-7.716-20.447-5.058-6.002-11.316-9.002-18.775-9.002-7.202 0-13.246 2.315-18.132 6.944-4.801 4.544-7.202 10.374-7.202 17.49 0 5.143 1.286 9.301 3.858 12.473 2.658 3.173 5.958 4.759 9.902 4.759 3.515 0 6.387-1.158 8.616-3.473 2.315-2.314 3.472-4.972 3.472-7.973v-2.314l2.83-1.03c1.286 2.23 1.929 4.93 1.929 8.103 0 5.315-1.758 9.559-5.273 12.73-3.43 3.087-7.93 4.63-13.503 4.63-5.744 0-10.46-2.1-14.146-6.301-3.686-4.2-5.53-9.645-5.53-16.332 0-10.288 3.816-18.99 11.446-26.106 7.63-7.115 17.06-10.673 28.292-10.673 9.687 0 17.96 3.13 24.82 9.388 6.943 6.172 10.415 13.631 10.416 22.376 0 14.403-9.86 28.077-29.578 41.023-19.719 12.945-31.464 25.634-35.236 38.065 4.544-3.515 9.816-5.273 15.818-5.273 4.372 0 9.987 1.158 16.846 3.472 6.944 2.23 11.445 3.344 13.503 3.344 4.458 0 8.187-1.2 11.188-3.6 3-2.487 6.13-7.245 9.388-14.275l3.343 1.543"/></g><g style="display:inline"><path style="fill:url(#b);fill-opacity:1" d="M1.5 1.5v458.868c0 166.31 134.315 301.132 300 301.132s300-134.821 300-301.132V1.5H1.5z"/></g><g style="display:inline"><path style="fill:none;fill-opacity:1;stroke:#000;stroke-width:3;stroke-miterlimit:4;stroke-dasharray:none;stroke-opacity:1" d="M1.5 1.5v458.868c0 166.31 134.315 301.132 300 301.132s300-134.821 300-301.132V1.5H1.5z"/></g></svg>
